packages/icons/src/tasMapRoute.svg

<svg  viewBox="0 0 34 33" fill="none" xmlns="http://www.w3.org/2000/svg">
<rect x="5.42969" y="5.18994" width="7" height="7" rx="0.5" stroke="#0278D5"/>
<rect x="21.2598" y="13.229" width="7.12525" height="6.98806" rx="0.5" stroke="#0278D5"/>
<rect x="5.42969" y="21.2158" width="7" height="7" rx="0.5" stroke="#0278D5"/>
<path d="M12.4297 8.68994L16.9091 8.68994V16.8032M12.4297 24.7158H16.9091V16.8032M16.9091 16.8032H21.0036" stroke="#0278D5" stroke-linejoin="round"/>
<path d="M29.2487 31.5941H25.839C25.7725 31.5946 25.7066 31.58 25.6466 31.5512C25.5865 31.5225 25.5338 31.4805 25.4925 31.4283L23.3274 28.7192C23.2849 28.666 23.2552 28.6036 23.2407 28.5371C23.2261 28.4705 23.2271 28.4015 23.2436 28.3354L24.0671 25.0189C24.083 24.9566 24.112 24.8985 24.1522 24.8484C24.1923 24.7983 24.2427 24.7573 24.3 24.7282L27.3519 23.1985C27.4133 23.1682 27.4809 23.1523 27.5494 23.1523C27.618 23.1523 27.6855 23.1682 27.7469 23.1985L30.838 24.7301C30.8966 24.7585 30.9482 24.7997 30.9888 24.8506C31.0294 24.9016 31.0581 24.961 31.0728 25.0245L31.859 28.341C31.8734 28.4055 31.8732 28.4725 31.8584 28.537C31.8436 28.6015 31.8145 28.6618 31.7733 28.7136L29.5934 31.4302C29.5518 31.4815 29.4993 31.5229 29.4397 31.5513C29.38 31.5797 29.3147 31.5943 29.2487 31.5941ZM25.839 31.1376H29.2412L31.4119 28.4379L30.6293 25.1344L27.5513 23.6103L24.5106 25.1344L23.6889 28.4397L25.839 31.1376Z" fill="#238FCF"/>
<path d="M31.4683 24.1191L31.8559 23.8005L27.7773 21.7808V22.2913L31.4683 24.1191Z" fill="#1BBFD3"/>
<path d="M22.5229 28.8647L22.0254 28.9747L24.8705 32.5446L25.0941 32.0918L22.5229 28.8647Z" fill="#79BF43"/>
<path d="M27.3194 22.2932V21.7827L23.2949 23.8006L23.6713 24.1248L27.3194 22.2932Z" fill="#1BBFD3"/>
<path d="M23.3996 24.4934L23.012 24.1599L21.9258 28.5273L22.4251 28.4173L23.3996 24.4934Z" fill="#1D4489"/>
<path d="M32.6777 28.4192L33.1752 28.5291L32.1411 24.1599L31.7461 24.4841L32.6777 28.4192Z" fill="#1D4489"/>
<path d="M32.5757 28.8647L29.9766 32.0974L30.1983 32.5502L33.0732 28.9747L32.5757 28.8647Z" fill="#79BF43"/>
<path d="M25.5048 32.2893L25.2812 32.7477H29.7846L29.561 32.2893H25.5048Z" fill="#1BBFD3"/>
</svg>

<svg viewBox="0 0 34 33" fill="none" xmlns="http://www.w3.org/2000/svg"><rect x="5.43" y="5.19" width="7" height="7" rx=".5" stroke="#0278D5"/><rect x="21.26" y="13.229" width="7.125" height="6.988" rx=".5" stroke="#0278D5"/><rect x="5.43" y="21.216" width="7" height="7" rx=".5" stroke="#0278D5"/><path d="M12.43 8.69h4.48v8.113m-4.48 7.913h4.48v-7.913m0 0h4.094" stroke="#0278D5" stroke-linejoin="round"/><path d="M29.249 31.594h-3.41a.437.437 0 0 1-.346-.166l-2.166-2.709a.443.443 0 0 1-.083-.384l.823-3.316a.45.45 0 0 1 .233-.29l3.052-1.53a.446.446 0 0 1 .395 0l3.091 1.531a.436.436 0 0 1 .235.294l.786 3.317a.444.444 0 0 1-.086.373l-2.18 2.716a.444.444 0 0 1-.344.164Zm-3.41-.456h3.402l2.17-2.7-.782-3.304-3.078-1.524-3.04 1.524-.822 3.306 2.15 2.698Z" fill="#238FCF"/><path d="m31.468 24.12.388-.32-4.079-2.02v.511l3.691 1.828Z" fill="#1BBFD3"/><path d="m22.523 28.865-.498.11 2.846 3.57.223-.453-2.571-3.227Z" fill="#79BF43"/><path d="M27.32 22.293v-.51L23.294 23.8l.376.324 3.648-1.832Z" fill="#1BBFD3"/><path d="m23.4 24.493-.388-.333-1.086 4.367.5-.11.974-3.924ZM32.678 28.42l.497.11-1.034-4.37-.395.324.932 3.935Z" fill="#1D4489"/><path d="m32.576 28.865-2.6 3.232.222.453 2.875-3.575-.497-.11Z" fill="#79BF43"/><path d="m25.505 32.29-.224.458h4.504l-.224-.459h-4.056Z" fill="#1BBFD3"/></svg>
